X: 14445
T: Galway, The
R: reel
M: 4/4
K: Gmajor
B|:AGEG DG,B,D|BAGA BedB|AGEC B,DA,C|B,~A,3 B,EED|
E2 EF GEDB,|D2 B,E DG,B,D|~E3G DEGA|1 ~B2AB G3 B:|2 ~B2AB G2 Bc||
|:d~G3 EGDC|B,A,B,D GABd|e~c3 AcGE|DEFA fed^c|
dG ~G3 EGDC|B,A,B,D GABd|e~c3 afge|1 dBcA G2 Bc:|2 dBcA G3 B||

